svgs/duotone/starfighter.svg

<svg xmlns="http://www.w3.org/2000/svg" viewBox="0 0 640 512"><!--! Font Awesome Pro 6.4.2 by @fontawesome - https://fontawesome.com License - https://fontawesome.com/license (Commercial License) Copyright 2023 Fonticons, Inc. --><path class="fa-primary" style="fill:var(--fa-primary-color,inherit);opacity:var(--fa-primary-opacity,1);" d="M353.8 14c-1-8-7.8-14-15.9-14H302.1c-8.1 0-14.9 6-15.9 14L256 256v96H224v64c0 17.7-14.3 32-32 32H160c-17.7 0-32-14.3-32-32V352H72v92l88 26.4V480c0 17.7 14.3 32 32 32s32-14.3 32-32h48 96 48c0 17.7 14.3 32 32 32s32-14.3 32-32v-9.6L568 444V352H512v64c0 17.7-14.3 32-32 32H448c-17.7 0-32-14.3-32-32V352H384V256L353.8 14zM288 256c0-17.7 14.3-32 32-32s32 14.3 32 32v48c0 8.8-7.2 16-16 16H304c-8.8 0-16-7.2-16-16V256z"/><path class="fa-secondary" style="fill:var(--fa-secondary-color,inherit);opacity:var(--fa-secondary-opacity,.4);" d="M48 72c13.3 0 24 10.7 24 24v24c13.3 0 24 10.7 24 24s-10.7 24-24 24V448c0 13.3-10.7 24-24 24s-24-10.7-24-24V168c-13.3 0-24-10.7-24-24s10.7-24 24-24V96c0-13.3 10.7-24 24-24zm544 0c13.3 0 24 10.7 24 24v24c13.3 0 24 10.7 24 24s-10.7 24-24 24V448c0 13.3-10.7 24-24 24s-24-10.7-24-24V168c-13.3 0-24-10.7-24-24s10.7-24 24-24V96c0-13.3 10.7-24 24-24zM320 224c17.7 0 32 14.3 32 32v48c0 8.8-7.2 16-16 16H304c-8.8 0-16-7.2-16-16V256c0-17.7 14.3-32 32-32zM128 320c0-17.7 14.3-32 32-32h32c17.7 0 32 14.3 32 32v96c0 17.7-14.3 32-32 32H160c-17.7 0-32-14.3-32-32V320zm352-32c17.7 0 32 14.3 32 32v96c0 17.7-14.3 32-32 32H448c-17.7 0-32-14.3-32-32V320c0-17.7 14.3-32 32-32h32z"/></svg>

<svg xmlns="http://www.w3.org/2000/svg" viewBox="0 0 640 512"><!--! Font Awesome Pro 6.1.1 by @fontawesome - https://fontawesome.com License - https://fontawesome.com/license (Commercial License) Copyright 2022 Fonticons, Inc. --><defs><style>.fa-secondary{opacity:.4}</style></defs><path class="fa-primary" d="M384 256V352H416V416C416 433.7 430.3 448 448 448H480C497.7 448 512 433.7 512 416V352H568V444L480 470.4V480C480 497.7 465.7 512 448 512C430.3 512 416 497.7 416 480H224C224 497.7 209.7 512 192 512C174.3 512 160 497.7 160 480V470.4L72 444V352H128V416C128 433.7 142.3 448 160 448H192C209.7 448 224 433.7 224 416V352H256V256L286.2 14.02C287.2 6.009 294.1 0 302.1 0H337.9C345.9 0 352.8 6.009 353.8 14.02L384 256zM288 304C288 312.8 295.2 320 304 320H336C344.8 320 352 312.8 352 304V256C352 238.3 337.7 224 320 224C302.3 224 288 238.3 288 256V304z"/><path class="fa-secondary" d="M48 72C61.25 72 72 82.75 72 96V120C85.25 120 96 130.7 96 144C96 157.3 85.25 168 72 168V448C72 461.3 61.25 472 48 472C34.75 472 24 461.3 24 448V168C10.75 168 0 157.3 0 144C0 130.7 10.75 120 24 120V96C24 82.75 34.75 72 48 72zM592 72C605.3 72 616 82.75 616 96V120C629.3 120 640 130.7 640 144C640 157.3 629.3 168 616 168V448C616 461.3 605.3 472 592 472C578.7 472 568 461.3 568 448V168C554.7 168 544 157.3 544 144C544 130.7 554.7 120 568 120V96C568 82.75 578.7 72 592 72zM352 256V304C352 312.8 344.8 320 336 320H304C295.2 320 288 312.8 288 304V256C288 238.3 302.3 224 320 224C337.7 224 352 238.3 352 256zM128 320C128 302.3 142.3 288 160 288H192C209.7 288 224 302.3 224 320V416C224 433.7 209.7 448 192 448H160C142.3 448 128 433.7 128 416V320zM480 288C497.7 288 512 302.3 512 320V416C512 433.7 497.7 448 480 448H448C430.3 448 416 433.7 416 416V320C416 302.3 430.3 288 448 288H480z"/></svg>
